RestoDelMundo/Paises Bajos/Otras Categorias/Maastricht Vv2.svg

<svg xmlns="http://www.w3.org/2000/svg" viewBox="0 0 612 792"><path fill="#f1f2f2" d="M98.48 281.379h215.204l143.387 397.39H241.884Z"/><path fill="#fff" d="M293.976 559.839 133.949 114.605l1.291-.464-1.291.464-.658-1.836h218.115l160.705 447.07z"/><path fill="#ed1c24" d="M295.905 557.097h212.306L349.479 115.512H137.19z"/><path fill="#c0352a" d="m312.762 401.128 47.116 29.347-16.882-51.566 44.882-33.782h-56l-19.116-56.443-19.098 56.443h-56l44.881 33.782-16.881 51.566ZM217.608 257.741h-27.592l-.759 2.634 25.873 71.985h14.749Z"/><path fill="#c0352a" d="m280.169 332.183 28.904-74.602h-28.301l-9.895 33.94c-1.099 3.671-1.88 7.324-1.88 11.083h-.603c0-3.759-.798-7.412-1.88-11.083l-9.895-33.94H228.3l28.922 74.602zM367.254 332.183l28.905-74.602h-28.302l-9.895 33.94c-1.1 3.671-1.897 7.324-1.897 11.083h-.586c0-3.759-.798-7.412-1.879-11.083l-9.896-33.94h-28.318l28.922 74.602z"/><path fill="#fff" d="M413.188 332.145h-62.239l-21.058-62.253-21.094 62.253h-62.219l49.872 37.503-18.631 56.869 52.075-32.42 52.052 32.425-18.632-56.872ZM205.07 244.741l-8.947 31.114-8.167-31.114h-32.345l-12.961 80.084h31.894l2.862-28.597 8.8 28.597h19.844l9.568-29.691 2.665 29.691h31.925l-13.169-80.084Z"/><path fill="#fff" d="m382.918 244.581-.573 1.967-9.452 32.42-10.028-34.387h-32.692l.001-.002h-34.339l-.575 1.97-9.452 32.421-10.027-34.391h-34.358l31.022 80.086h26.707l30.199-77.959 30.195 77.96h26.693l31.02-80.085Z"/><path fill="#a39161" d="m329.893 390.878-47.135 29.347 16.9-51.584-44.899-33.763h56l19.134-56.461 19.097 56.461h56.017l-44.899 33.763 16.9 51.584Z"/><path d="M145.861 322.093h26.21l3.192-31.884c.284-2.979.479-6.029.674-8.991h.904c.195 3.174.887 6.136 1.667 9.292l9.717 31.582h15.835l10.782-33.462c.781-2.377 1.294-4.948 1.773-7.413h.497l3.671 40.875h26.209l-12.271-74.62h-27.592l-8.423 29.294c-.904 3.156-1.383 6.614-1.88 9.895h-.691l-10.285-39.189h-27.912zM297.884 247.314l-9.895 33.94c-1.1 3.671-1.879 7.324-1.879 11.083h-.603c0-3.759-.798-7.412-1.879-11.083l-9.895-33.94h-28.319l28.904 74.619h22.964l28.904-74.619zM384.97 247.314l-9.896 33.94c-1.099 3.671-1.897 7.324-1.897 11.083h-.584c0-3.759-.798-7.412-1.88-11.083l-9.895-33.94h-28.302l28.903 74.619h22.947l28.903-74.619z"/></svg>

<svg enable-background="new 0 0 612 792" viewBox="0 0 612 792" xmlns="http://www.w3.org/2000/svg"><path d="M 98.48 281.379 L 313.684 281.379 L 457.071 678.769 L 241.884 678.769 Z" fill="#f1f2f2"/><path d="M 293.976 559.839 L 133.949 114.605 L 135.24 114.141 L 133.949 114.605 L 133.291 112.769 L 351.406 112.769 L 512.111 559.839 L 293.976 559.839 Z" fill="#fff"/><path d="M 295.905 557.097 L 508.211 557.097 L 349.479 115.512 L 137.19 115.512 L 295.905 557.097 Z" fill="#ed1c24"/><path d="M 312.762 401.128 L 359.878 430.475 L 342.996 378.909 L 387.878 345.127 L 331.878 345.127 L 312.762 288.684 L 293.664 345.127 L 237.664 345.127 L 282.545 378.909 L 265.664 430.475 Z" fill="#c0352a"/><path d="M 217.608 257.741 L 190.016 257.741 L 189.257 260.375 L 215.13 332.36 L 229.879 332.36 Z" fill="#c0352a"/><path d="M 280.169 332.183 l 28.904 -74.602 h -28.301 l -9.895 33.94 c -1.099 3.671 -1.88 7.324 -1.88 11.083 h -.603 c 0 -3.759 -.798 -7.412 -1.88 -11.083 l -9.895 -33.94 h -28.319 l 28.922 74.602 H 280.169 z" fill="#c0352a"/><path d="M 367.254 332.183 l 28.905 -74.602 h -28.302 l -9.895 33.94 c -1.1 3.671 -1.897 7.324 -1.897 11.083 h -.586 c 0 -3.759 -.798 -7.412 -1.879 -11.083 l -9.896 -33.94 h -28.318 l 28.922 74.602 H 367.254 z" fill="#c0352a"/><path d="M 413.188 332.145 L 350.949 332.145 L 329.891 269.892 L 308.797 332.145 L 246.578 332.145 L 296.45 369.648 L 277.819 426.517 L 329.894 394.097 L 381.946 426.522 L 363.314 369.65 Z" fill="#fff"/><path d="M 205.07 244.741 L 196.123 275.855 L 187.956 244.741 L 155.611 244.741 L 142.65 324.825 L 145.861 324.825 L 174.544 324.825 L 177.406 296.228 L 186.206 324.825 L 206.05 324.825 L 215.618 295.134 L 218.283 324.825 L 250.208 324.825 L 237.039 244.741 Z" fill="#fff"/><path d="M 382.918 244.581 L 382.345 246.548 L 372.893 278.968 L 362.865 244.581 L 330.173 244.581 L 330.174 244.579 L 295.835 244.579 L 295.26 246.549 L 285.808 278.97 L 275.781 244.579 L 241.423 244.579 L 272.445 324.665 L 299.152 324.665 L 329.351 246.706 L 359.546 324.666 L 386.239 324.666 L 417.259 244.581 Z" fill="#fff"/><path d="M 329.893 390.878 L 282.758 420.225 L 299.658 368.641 L 254.759 334.878 L 310.759 334.878 L 329.893 278.417 L 348.99 334.878 L 405.007 334.878 L 360.108 368.641 L 377.008 420.225 Z" fill="#a39161"/><path d="M 145.861 322.093 h 26.21 l 3.192 -31.884 c .284 -2.979 .479 -6.029 .674 -8.991 h .904 c .195 3.174 .887 6.136 1.667 9.292 l 9.717 31.582 h 15.835 l 10.782 -33.462 c .781 -2.377 1.294 -4.948 1.773 -7.413 h .497 l 3.671 40.875 h 26.209 l -12.271 -74.62 h -27.592 l -8.423 29.294 c -.904 3.156 -1.383 6.614 -1.88 9.895 h -.691 l -10.285 -39.189 h -27.912 L 145.861 322.093 z"/><path d="M 297.884 247.314 l -9.895 33.94 c -1.1 3.671 -1.879 7.324 -1.879 11.083 h -.603 c 0 -3.759 -.798 -7.412 -1.879 -11.083 l -9.895 -33.94 h -28.319 l 28.904 74.619 h 22.964 l 28.904 -74.619 H 297.884 z"/><path d="M 384.97 247.314 l -9.896 33.94 c -1.099 3.671 -1.897 7.324 -1.897 11.083 h -.584 c 0 -3.759 -.798 -7.412 -1.88 -11.083 l -9.895 -33.94 h -28.302 l 28.903 74.619 h 22.947 l 28.903 -74.619 H 384.97 z"/></svg>
